X:111
T:We'll Dance all Night
M:2/4
L:1/8
B:Thompson's Compleat Collection of 200 Favourite Country Dances, vol. 2 (London, 1765)
Z:Transcribed and edited by Flynn Titford-Mock, 2007
Z:abc's:AK/Fiddler's Companion
K:A
e>fe>f | e>ac>d | e>fe>f | e>ac>d | e>fg>a | b>ga>f | g2 "tr"f2 | e4 :|
|: B>cd>c | B>Ec>E | d>Ec>E | "tr"B4 | a>fe>f | e>dc>a | c2"tr"B2 | A4 :|

